X: 12104
T: Eva
R: strathspey
M: 4/4
K: Gminor
|:{B}c3 A G2 C2|E5 BB|d3 B E4|E2 ED {B}c2 {E}F2|F2 E2 EF (3FEC|(3E2F2F2 F4|
{B}c3 A G2 C2|E4 E2 BE|d3 B E4|E2 ED {B}c3 {F}G|F2 (3FEC {E}F3E|C8:|
|:c4 c4|z Gcd ed {B}c2|B2 G2 E2 C2|{E}F4 F4|F2 cd ed c2|B2 FG B2 c2|
c8|z2 cd ed c2|B2 FG B2 cc|e2 ef {B}c2 e2|B2 FE F4|F4 z CcB:|

